X: 40
T:Epping Forest
M:6/8
L:1/8
K:F
d2 d c>BA|B>AG ^F E|f>ed c2 B|A3 A2 d|f>ed c2 A|B>AG ^F2 D|E=FG G2 ^F|G3 G3:|
|: B/2c/2|d3 c3|B3 B2 d/2e/2|f3 e3|d3 d2 B/2c/2|d3 c3|B3 B2 d/2e/2|f3 e3|d3 d3:|
|: d|d>cd c>BA||B>AG ^F2 D|E>=FG G2 ^F| G3 G2 d| d>ed c>BA|B>AG ^F2 D|E>FG G2 ^F| G3 G3:|

